packages/dnb-ui-lib/assets/icons/globe.svg

<svg width="16" height="16" viewBox="0 0 16 16" fill="none" xmlns="http://www.w3.org/2000/svg">
<path d="M7.99982 14.9996C11.8657 14.9996 14.9996 11.8657 14.9996 7.99981C14.9996 4.13392 11.8657 1 7.99982 1C4.13393 1 1.00001 4.13392 1.00001 7.99981C1.00001 11.8657 4.13393 14.9996 7.99982 14.9996Z" stroke="black" stroke-width="1.5" stroke-linecap="round" stroke-linejoin="round"/>
<path d="M4.93795 10.3331C5.07978 10.3331 5.21975 10.3007 5.34721 10.2385C5.47468 10.1763 5.58628 10.0859 5.67356 9.97405C5.76083 9.86225 5.82147 9.73202 5.85088 9.59327C5.88028 9.45451 5.87768 9.31088 5.84326 9.17329L5.3766 7.30667C5.3261 7.10479 5.20958 6.92558 5.04555 6.79751C4.88152 6.66944 4.6794 6.59987 4.4713 6.59985H1.14063C0.883272 7.86408 0.98045 9.17486 1.42143 10.3873C1.8624 11.5998 2.63 12.6667 3.63941 13.4702L4.26659 10.3331H4.93795Z" stroke="black" stroke-width="1.5" stroke-linecap="round" stroke-linejoin="round"/>
<path d="M13.5903 3.79992H11.0617C10.8536 3.79995 10.6515 3.86952 10.4874 3.99759C10.3234 4.12565 10.2069 4.30487 10.1564 4.50675L9.68973 6.37336C9.65531 6.51096 9.65271 6.65459 9.68211 6.79334C9.71152 6.9321 9.77216 7.06232 9.85943 7.17413C9.94671 7.28593 10.0583 7.37638 10.1858 7.43859C10.3132 7.5008 10.4532 7.53314 10.595 7.53316H11.5775L12.0697 10.4886C12.106 10.7066 12.2186 10.9045 12.3872 11.0473C12.5558 11.19 12.7696 11.2683 12.9905 11.2683H14.1883C14.8098 10.0959 15.0837 8.77051 14.9778 7.44786C14.8718 6.1252 14.3905 4.86027 13.5903 3.80179V3.79992Z" stroke="black" stroke-width="1.5" stroke-linecap="round" stroke-linejoin="round"/>
</svg>

<svg width="16" height="16" viewBox="0 0 16 16" fill="none" xmlns="http://www.w3.org/2000/svg"><path d="M8 15A7 7 0 108 1a7 7 0 000 14z" stroke="#000" stroke-width="1.5" stroke-linecap="round" stroke-linejoin="round"/><path d="M4.938 10.333a.933.933 0 00.905-1.16l-.466-1.866A.933.933 0 004.47 6.6h-3.33a6.997 6.997 0 002.498 6.87l.628-3.137h.67zM13.59 3.8h-2.528a.934.934 0 00-.906.707L9.69 6.373a.933.933 0 00.905 1.16h.982l.493 2.956a.933.933 0 00.92.78h1.198a6.97 6.97 0 00-.598-7.467V3.8z" stroke="#000" stroke-width="1.5" stroke-linecap="round" stroke-linejoin="round"/></svg>
